packages/sources/icons/src/vitamix/telegram-fill.svg

<svg width="16" height="16" viewBox="0 0 16 16" xmlns="http://www.w3.org/2000/svg"><path d="M7.99992 14.6667C4.31792 14.6667 1.33325 11.682 1.33325 8.00001C1.33325 4.31801 4.31792 1.33334 7.99992 1.33334C11.6819 1.33334 14.6666 4.31801 14.6666 8.00001C14.6666 11.682 11.6819 14.6667 7.99992 14.6667ZM5.92659 8.78001L5.93525 8.77534L6.51525 10.6887C6.58992 10.896 6.69259 10.9333 6.81725 10.916C6.94259 10.8993 7.00859 10.832 7.09059 10.7533L7.88259 9.98801L9.58259 11.2467C9.89325 11.418 10.1166 11.3293 10.1939 10.9587L11.2986 5.74401C11.4206 5.25868 11.2073 5.06401 10.8306 5.21868L4.34192 7.72534C3.89925 7.90268 3.90192 8.15068 4.26192 8.26068L5.92659 8.78068V8.78001Z"/></svg>

<svg width="16" height="16" xmlns="http://www.w3.org/2000/svg"><path d="M8 14.667A6.667 6.667 0 1 1 8 1.334a6.667 6.667 0 0 1 0 13.333ZM5.927 8.78l.008-.005.58 1.914c.075.207.178.244.302.227.126-.017.192-.084.274-.163l.792-.765 1.7 1.259c.31.171.534.082.61-.288L11.3 5.744c.122-.485-.092-.68-.468-.525L4.34 7.725c-.442.178-.44.426-.08.536l1.666.52V8.78Z"/></svg>
